X: 1
T: Turkey in the Straw
C: Trad
R: American Old-Timey
M: 4/4
L: 1/8
K: G
Z: ABC transcription by Verge Roller
r: 32
|: BA | "G" GFGA G2 B,C | "G" DEDB, D2 GA | "G" B2 B2 BAGA | "D" B2 A2 AcBA |
"G" GFGA G2 B,C | "G" DEDB, D2 GA | "G" Bd-de dBGA | "D" B2 A2 "G" G2 :|
|:d2 | "G" Bd-dB d2 d2 | "G" Bd-dB d2 d2 | "C" ce-ec e2 e2 | "C" ce-ec e2 f2 |
"G" g2 g2 d2 d2 | "G" B2 B2 "D" A2 GA | "G" Bd-de dBGA | "D" B2 A2 "G" G2 :|
